!!!!SEGMENT: Any2019-Vulnerasti_cor_meum.krn
!!!id: Any2019
!!!AGN: Motet
!!!voices: 4
!!!COM: Anonymous
!!!OTL: Vulnerasti cor meum
**kern	**kern	**kern	**kern
*part4	*part3	*part2	*part1
*staff4	*staff3	*staff2	*staff1
*I"Bassus	*I"Tenor	*I"Altus	*I"Superius
*I'B	*I'T	*I'A	*I'S
*clefF4	*clefGv2	*clefG2	*clefG2
*k[b-]	*k[b-]	*k[b-]	*k[b-]
*F:	*F:	*F:	*F:
*M2/1	*M2/1	*M2/1	*M2/1
*met(C|)	*met(C|)	*met(C|)	*met(C|)
!!Section: Prima pars: Vulnerasti cor meum
!!!OMD: Prima pars: Vulnerasti cor meum
=1	=1	=1	=1
1.d	0r	0r	0r
4c	.	.	.
4B-y	.	.	.
=2	=2	=2	=2
2c	0r	1r	0r
2d	.	.	.
2G	.	[1d	.
[2B-y	.	.	.
=3	=3	=3	=3
2B-]	0r	2d]	0r
4A	.	4c	.
4G	.	4B-y	.
2A	.	2c	.
2F	.	2d	.
=4	=4	=4	=4
0G	1.g	2G	0r
.	.	1B-y	.
.	4f	4A	.
.	4e	4G	.
=5	=5	=5	=5
2r	2f	2A	1r
1G	2g	2G	.
.	2d	2.B-y	[1dd
2D	[2f	.	.
.	.	4c	.
=6	=6	=6	=6
1B-y	2f]	1d	2dd]
.	4e	.	4cc
.	4d	.	4b-y
2A	2e	2r	2cc
2B-y	2d	2d	2dd
=7	=7	=7	=7
2c	2r	2e	2g
4B-y	1d	2f	1b-y
4A	.	.	.
1G	.	1g	.
.	4c	.	4a
.	4B-y	.	4g
=8	=8	=8	=8
2r	2c	2e	1a
2.D	1d	1f	.
.	.	.	2b-y
4E	.	.	.
2F	2c	2f	[2a
=9	=9	=9	=9
2G	2B-y	2d	2a]
2E	2G	2c	1g
1D	1A	1d	.
.	.	.	2f#i
=10	=10	=10	=10
2r	0G	2r	0g
1d	.	2.d	.
.	.	4e	.
4c	.	4f	.
4B-y	.	4g	.
=11	=11	=11	=11
2c	1r	2a	0r
2d	.	1b-y	.
2G	[1d	.	.
[2B-y	.	4a	.
.	.	4g	.
=12	=12	=12	=12
2B-]	1d]	2.f	0r
4A	.	.	.
4G	.	4g	.
2F	1d	2a	.
[2G	.	[2b-y	.
=13	=13	=13	=13
2G]	1d	2b-]	1r
2F	.	2a	.
1G	1d	2g	[1b-y
.	.	4f	.
.	.	4e	.
=14	=14	=14	=14
2G	0g	1d	2b-]
2.G	.	.	4cc
.	.	.	4dd
.	.	1r	2ee-i
4A	.	.	.
4B-y	.	.	[2dd
4c	.	.	.
=15	=15	=15	=15
1d	1.f	1a	2dd]
.	.	.	4cc
.	.	.	4b-y
2r	.	2.a	2a
2A	2e	.	[2cc
.	.	4g	.
=16	=16	=16	=16
2B-y	2d	2f	4cc]
.	.	.	4b-y
2G	2B-y	2e	1b-y
1F	1c	1f	.
.	.	.	2a
=17	=17	=17	=17
1G	[0B-y	1r	[0b-y
[1d	.	[1f	.
=18	=18	=18	=18
2d]	0B-]	2f]	0b-]
2d	.	2f	.
1d	.	1f	.
=19	=19	=19	=19
1c	0r	2.e	0r
.	.	4f	.
2B-y	.	2g	.
[2c	.	[2a	.
=20	=20	=20	=20
4c]	0r	4a]	0r
4B-y	.	4g	.
4A	.	1g	.
4G	.	.	.
1A	.	.	.
.	.	2f#i	.
=21	=21	=21	=21
0G	1r	0g	1r
.	[1d	.	1b-y
=22	=22	=22	=22
1r	2d]	1r	2b-y
.	2d	.	1dd
1B-y	1d	1f	.
.	.	.	4cc
.	.	.	4b-y
=23	=23	=23	=23
2F	1c	2f	1a
2F	.	2f	.
2G	2B-y	2e	2g
2F	[2c	2f	[2a
=24	=24	=24	=24
1E-X	4c]	2g	4a]
.	4B-y	.	4g
.	4A	2c	1g
.	4G	.	.
1D	1A	[1d	.
.	.	.	2f#i
=25	=25	=25	=25
2r	0G	1d]	0g
1d	.	.	.
.	.	2r	.
4c	.	2d	.
4B-y	.	.	.
=26	=26	=26	=26
2c	1r	2e	1r
2d	.	2f	.
[1G	1d	[1g	1b-y
=27	=27	=27	=27
0G_	1d	0g_	1b-y
.	1d	.	1b-y
=28	=28	=28	=28
1G]	1.d	1g]	1.b-y
1r	.	1r	.
.	2d	.	2a
=29	=29	=29	=29
0r	2.c	0r	1a
.	4d	.	.
.	2e	.	2g
.	[2f	.	[2a
=30	=30	=30	=30
1r	4f]	1r	2a]
.	4e	.	.
.	1d	.	4g
.	.	.	4f
1r	.	1g	1e
.	2c#i	.	.
=31	=31	=31	=31
1.d	0d	2f	0d
.	.	2d	.
.	.	2f	.
4c	.	2g	.
4B-y	.	.	.
=32	=32	=32	=32
2c	1r	1a	1r
2d	.	.	.
1G	1g	1b-y	1dd
=33	=33	=33	=33
2r	1g	2r	1dd
2G	.	2b-y	.
2G	1g	2b-y	1dd
2G	.	2b-y	.
=34	=34	=34	=34
2B-y	1.d	1.f	2dd
2B-y	.	.	1dd
2B-y	.	.	.
2G	2e	2g	4cc
.	.	.	4b-y
=35	=35	=35	=35
1F	1f	1a	1a
2r	2g	1r	2b-y
2c	2e	.	[2cc
=36	=36	=36	=36
2A	2f	1r	2cc]
2B-y	2d	.	1b-y
1F	1c	1f	.
.	.	.	2a
=37	=37	=37	=37
2r	0B-y	1d	0b-y
1d	.	.	.
.	.	2r	.
4c	.	2d	.
4B-y	.	.	.
=38	=38	=38	=38
2c	1r	2e	1r
2d	.	2f	.
2G	1d	1g	1b-y
2B-y	.	.	.
=39	=39	=39	=39
1A	1e	2.a	1cc
.	.	4g	.
1D	1f	2f	1a
.	.	2e	.
=40	=40	=40	=40
2.G	1g	1d	1.b-y
4A	.	.	.
4B-y	1d	1r	.
4c	.	.	.
[2d	.	.	4a
.	.	.	4g
=41	=41	=41	=41
2d]	0a	1r	2f
4c	.	.	2ff
4B-y	.	.	.
2c	.	1a	2ee
2d	.	.	2ff
=42	=42	=42	=42
2.G	1.g	1b-y	2gg
.	.	.	4ff
4A	.	.	4ee
2B-y	.	1b-y	2dd
2c	4f	.	2ee
.	4e	.	.
=43	=43	=43	=43
1d	2d	2a	2ff
.	2f	2a	1dd
1A	1e	1a	.
.	.	.	2cc#i
=44	=44	=44	=44
2r	0d	2f	0dd
1d	.	1b-y	.
4c	.	4a	.
4B-y	.	4g	.
=45	=45	=45	=45
2c	1r	2a	1r
2d	.	2f	.
1G	[1d	1g	[1b-y
=46	=46	=46	=46
2r	1d]	1f	1b-]
1B-y	.	.	.
.	2d	2r	1b-y
4A	2d	[2f	.
4G	.	.	.
=47	=47	=47	=47
2A	2c	2f]	2a
2G	2B-y	2e	1b-y
1F	1c	2f	.
.	.	2f	2a
=48	=48	=48	=48
1G	1B-y	2e	2g
.	.	1d	1b-y
1E-X	1G	.	.
.	.	2c	4a
.	.	.	4g
=49	=49	=49	=49
0D	0A	0d	2f
.	.	.	1g
.	.	.	2f#i
=50	=50	=50	=50
0E-i	0G	1B-y	0g
.	.	1c	.
=51	=51	=51	=51
00D	00A	00d	00f
=52||	=52||	=52||	=52||
*M2/1	*M2/1	*M2/1	*M2/1
*met(C|)	*met(C|)	*met(C|)	*met(C|)
!!Section: Secunda pars: Veni in ortum
!!!OMD: Secunda pars: Veni in ortum
1.d	0r	0r	0r
4c	.	.	.
4B-y	.	.	.
=53	=53	=53	=53
2c	0r	1r	0r
2d	.	.	.
2G	.	[1g	.
[2B-y	.	.	.
=54	=54	=54	=54
2B-]	0r	2g]	0r
4A	.	4f	.
4G	.	4e	.
1A	.	2f	.
.	.	2f	.
=55	=55	=55	=55
1G	0g	1g	0b-y
1r	.	2r	.
.	.	2G	.
=56	=56	=56	=56
1G	1g	2.B-y	1b-y
.	.	4c	.
1G	1g	[1d	1b-y
=57	=57	=57	=57
1G	0g	1d]	2b-y
.	.	.	4cc
.	.	.	4dd
1G	.	1r	2ee-i
.	.	.	2dd
=58	=58	=58	=58
1D	1f	1r	2dd
.	.	.	4cc
.	.	.	4b-y
1A	1e	1c	4cc
.	.	.	4b-y
.	.	.	4a
.	.	.	4g
=59	=59	=59	=59
1.B-y	2.d	1.d	0f
.	4e	.	.
.	4f	.	.
.	4g	.	.
4A	[2a	4c	.
4G	.	4B-y	.
=60	=60	=60	=60
2F	2a]	4c	0r
.	.	4B-y	.
2E	1g	4A	.
.	.	4G	.
1D	.	1A	.
.	2f#i	.	.
=61	=61	=61	=61
0G	0g	2G	1r
.	.	2.B-y	.
.	.	.	1dd
.	.	4c	.
.	.	4d	.
.	.	4e	.
=62	=62	=62	=62
1r	0r	4f	2dd
.	.	4g	.
.	.	1a	1cc
1c	.	.	.
.	.	4g	4b-y
.	.	4f	4a
=63	=63	=63	=63
2c	0r	2e	0g
1c	.	1e	.
2c	.	2e	.
=64	=64	=64	=64
1.d	0r	2f	0r
.	.	4g	.
.	.	4a	.
.	.	2b-y	.
2c	.	[2a	.
=65	=65	=65	=65
2B-y	0r	2a]	1r
4A	.	1g	.
4G	.	.	.
1A	.	.	1a
.	.	2f#i	.
=66	=66	=66	=66
1G	1r	0g	2.b-y
.	.	.	4cc
1r	1g	.	2dd
.	.	.	[2ee-i
=67	=67	=67	=67
1G	2g	1r	2ee-]
.	1g	.	1dd
1G	.	1d	.
.	2g	.	4cc
.	.	.	4b-y
=68	=68	=68	=68
2.F	1.a	1f	2a
.	.	.	1ff
4G	.	.	.
4A	.	2f	.
4B-y	.	.	.
2c	2g	2c	[2ee
=69	=69	=69	=69
2d	2f	2f	2ee]
2B-y	4e	2g	1dd
.	4d	.	.
1A	1e	1a	.
.	.	.	2cc#i
=70	=70	=70	=70
1D	[0d	0f	[0dd
1r	.	.	.
=71	=71	=71	=71
1.G	0d]	1r	0dd]
.	.	[1d	.
2G	.	.	.
=72	=72	=72	=72
1G	0r	2d]	0r
.	.	2d	.
1G	.	1d	.
=73	=73	=73	=73
1B-y	0r	1d	0r
1A	.	1f	.
=74	=74	=74	=74
1G	0r	1e	0r
2F	.	2.d	.
[2B-y	.	.	.
.	.	4e	.
=75	=75	=75	=75
2B-]	0r	4f	0r
.	.	4g	.
2c	.	1a	.
2d	.	.	.
2G	.	[2g	.
=76	=76	=76	=76
1A	1r	2g]	1r
.	.	2f#i	.
[1G	[1d	[1g	1b-y
=77	=77	=77	=77
1G]	2d]	1g]	2b-y
.	2d	.	1b-y
1r	1d	1r	.
.	.	.	4a
.	.	.	4g
=78	=78	=78	=78
0r	1d	1r	2f
.	.	.	2b-y
.	1f	1d	2a
.	.	.	[2dd
=79	=79	=79	=79
1r	1e	2A	2dd]
.	.	2A	1cc
1r	1d	1B-y	.
.	.	.	[2b-y
=80	=80	=80	=80
0r	1c	1F	2b-]
.	.	.	2a
.	1d	2r	2b-y
.	.	[2f	4a
.	.	.	4g
=81	=81	=81	=81
1r	1d	2f]	2f
.	.	2d	1dd
1r	1A	2e	.
.	.	2f	2cc
=82	=82	=82	=82
1G	1d	1g	1b-y
2A	2c	2f	2a
2G	[2d	2g	[2b-y
=83	=83	=83	=83
2B-y	4d]	1f	2b-]
.	4A	.	.
2F	2c	.	1a
1G	1B-y	1d	.
.	.	.	2g
=84	=84	=84	=84
2r	0A	2r	0a
1c	.	1a	.
4B-y	.	4g	.
4A	.	4f	.
=85	=85	=85	=85
2B-y	0r	2g	1r
2c	.	2a	.
2d	.	2d	[1dd
2d	.	[2f	.
=86	=86	=86	=86
1B-y	1r	2f]	2dd]
.	.	4e	4cc
.	.	4d	4b-y
1A	1A	1e	4cc
.	.	.	4b-y
.	.	.	4a
.	.	.	4g
=87	=87	=87	=87
1r	1B-y	1d	2f
.	.	.	2d
1A	1c	2r	1e
.	.	[2a	.
=88	=88	=88	=88
1B-y	1d	2a]	2d
.	.	2g	1dd
1A	1e	[1a	.
.	.	.	2cc
=89	=89	=89	=89
2r	1f	1a]	2dd
2F	.	.	1ff
1c	1g	1g	.
.	.	.	2ee
=90	=90	=90	=90
2.F	0a	0f	1.ff
4G	.	.	.
2A	.	.	.
2B-y	.	.	4ee
.	.	.	4dd
=91	=91	=91	=91
1c	1g	0r	1ee
2d	2f	.	2ff
2c	[2g	.	[2ee
=92	=92	=92	=92
1B-y	4g]	1r	2ee]
.	4f	.	.
.	4e	.	1dd
.	4d	.	.
1A	1e	1a	.
.	.	.	2cc#i
=93	=93	=93	=93
2r	0d	1.f	0dd
1d	.	.	.
4c	.	2g	.
4B-y	.	.	.
=94	=94	=94	=94
2c	0r	2a	1r
2d	.	1b-y	.
2G	.	.	[1dd
[2B-y	.	4a	.
.	.	4g	.
=95	=95	=95	=95
2B-]	0r	2f	1dd]
4A	.	1g	.
4G	.	.	.
1A	.	.	1cc
.	.	2f#i	.
=96	=96	=96	=96
0G	1r	0g	1.b-y
.	1g	.	.
.	.	.	4a
.	.	.	4g
=97	=97	=97	=97
0r	1.f	0r	2a
.	.	.	1dd
.	2e	.	2cc
=98	=98	=98	=98
1.G	2d	2.g	1.b-y
.	2c	.	.
.	.	4f	.
.	[1B-y	2e	.
4F	.	[2d	4a
4E	.	.	4g
=99	=99	=99	=99
2D	2B-]	2d]	2f
2E-X	4A	2c	1g
.	4G	.	.
1D	1A	1d	.
.	.	.	2f#i
=100	=100	=100	=100
1r	0G	1r	0g
1B-y	.	2.d	.
.	.	4e	.
=101	=101	=101	=101
2A	0r	2f	0r
2G	.	1g	.
1A	.	.	.
.	.	2f#i	.
=102	=102	=102	=102
1G	1d	1g	1b-y
1r	1f	1r	1a
=103	=103	=103	=103
0r	2e	0r	2g
.	1d	.	2f
.	.	.	1e
.	2c#i	.	.
=104	=104	=104	=104
1r	1d	1r	1d
1B-y	1r	2.d	1r
.	.	4e	.
=105	=105	=105	=105
2A	0r	2f	0r
2G	.	1g	.
1A	.	.	.
.	.	2f#i	.
=106	=106	=106	=106
2G	2r	2g	2r
2G	2d	2g	2b-y
2G	2d	2g	2b-y
2G	2d	[2g	2b-y
=107	=107	=107	=107
1A	1c	2g]	2cc
.	.	2f	2a
2G	2d	2g	2b-y
2G	2g	2g	2b-y
=108	=108	=108	=108
2d	2f	2a	2a
2B-y	2d	2g	1dd
1A	1e	1a	.
.	.	.	2cc#i
=109	=109	=109	=109
2B-y	2d	2f	2dd
2G	2d	2g	2b-y
2A	2c	2e	2cc
2F	2d	[2f	[2a
=110	=110	=110	=110
1G	1B-y	2f]	2a]
.	.	2e	2g
1D	[1A	1f	[1a
=111	=111	=111	=111
1r	1A]	1r	1a]
1F	1r	1f	1r
=112	=112	=112	=112
0F	1c	0f	1a
.	[1c	.	[1a
=113	=113	=113	=113
1r	1c]	1r	1a]
1A	1r	1f	1r
=114	=114	=114	=114
0G	1d	0g	0b-y
.	[1d	.	.
=115	=115	=115	=115
1B-y	1d]	1f	1b-y
1A	1e	1a	1cc
=116	=116	=116	=116
1.D	1.f	2a	1.dd
.	.	1a	.
2E	2e	2g	2cc
=117	=117	=117	=117
1F	2d	2f	2dd
.	2c	2e	2a
[1G	[1B-y	2d	1b-y
.	.	[2e	.
=118	=118	=118	=118
2G]	2B-]	4e]	0g
.	.	4d	.
2F	2A	1d	.
1E-X	1G	.	.
.	.	2c	.
=119	=119	=119	=119
0D	0A	[0dl	0f
=120	=120	=120	=120
00Gl	00Gl	00d]	00gl
==	==	==	==
*-	*-	*-	*-
!!!system-decoration: [*]
!!!RDF**kern: i = editorial accidental
!!!RDF**kern: l = terminal long
!!!ENC: Theodor Dumitrescu
!!!END: 2025/5/8
!!!EED: Benjamin Ory
!!!EEV: 2025/05/08
!!!YEC: Copyright 2025 Theodor Dumitrescu, All Rights Reserved
!!!ONB: Translated from MusicXML on 2025/05/08
!!!verovio: header encoded
!!!header-left: Transcribed by @{ENC}\n
!!!header-right:
!!!header-center: